X: 8524
T: Creeping Docken
R: jig
M: 6/8
K: Adorian
EAA AGA|BAB GED|GED GED|(3EFG A GED|
EAA AGA|BAB G2 B|cBc A2 G|1 EDD D2 D:|2 EDD D z g||
fdd cdd|edd d2 g|f2 d ged|cAA A2 g|
fga efg|fef d2 B|cBc A2 G|1 EDD D z g:|2 EDD D3||

